X:553
T: "Liebeskummer"
N: Z1233
O: Europa, Mitteleuropa, Oesterreich
R: Liebes - Lied, verlassene Liebe
M: 3/4
L: 1/8
K: G
 | (3BdgG4 | DGGBBd | d3cF2 |
(3AcfF4 | DFF2F2 | d4
dc | (3BdgG4 | DGGBBd | d3cF2 |
(3AcfF4 | DFedcF | G4z2

@@@ Tune index: 10311
